svg/s/DZ.svg

<svg fill="none" height="12" viewBox="0 0 16 12" width="16" xmlns="http://www.w3.org/2000/svg" xmlns:xlink="http://www.w3.org/1999/xlink"><mask id="a" height="12" maskUnits="userSpaceOnUse" width="16" x="0" y="0"><path d="m0 0h16v12h-16z" fill="#fff"/></mask><g clip-rule="evenodd" fill-rule="evenodd" mask="url(#a)"><path d="m8 0h8v12h-8z" fill="#f7fcff"/><path d="m0 0h8v12h-8z" fill="#36a400"/><path d="m7.99998 7.999c-1.2301-.23121-1.50606-1.29963-1.50606-2.09461 0-.79497.45642-1.76949 1.50606-1.95355 1.04965-.18406 2.50212.55231 2.50212.55231s-1.33908-1.49424-2.74077-1.49424-2.74076 1.05177-2.74076 2.89548c0 1.84372.96058 3.05485 2.74076 3.05485s2.65917-1.87894 2.65917-1.87894-1.19041 1.14991-2.42052.9187zm.46782-2.72058-.89904-.00651.87563.62398-.30637 1.00745.91161-.55036 1.03087.57603-.54371-1.02462.83121-.63248-.85128-.00099-.50218-.8853z" fill="#f00"/></g></svg>

<svg width="16" height="12" viewBox="0 0 16 12" fill="none" xmlns="http://www.w3.org/2000/svg">
<mask id="mask0" mask-type="alpha" maskUnits="userSpaceOnUse" x="0" y="0" width="16" height="12">
<rect width="16" height="12" fill="white"/>
</mask>
<g mask="url(#mask0)">
<path fill-rule="evenodd" clip-rule="evenodd" d="M8 0H16V12H8V0Z" fill="#F7FCFF"/>
<path fill-rule="evenodd" clip-rule="evenodd" d="M0 0H8V12H0V0Z" fill="#36A400"/>
<path fill-rule="evenodd" clip-rule="evenodd" d="M7.99998 7.999C6.76988 7.76779 6.49392 6.69937 6.49392 5.90439C6.49392 5.10942 6.95034 4.1349 7.99998 3.95084C9.04963 3.76678 10.5021 4.50315 10.5021 4.50315C10.5021 4.50315 9.16302 3.00891 7.76133 3.00891C6.35964 3.00891 5.02057 4.06068 5.02057 5.90439C5.02057 7.74811 5.98115 8.95924 7.76133 8.95924C9.54151 8.95924 10.4205 7.0803 10.4205 7.0803C10.4205 7.0803 9.23009 8.23021 7.99998 7.999ZM8.4678 5.27842L7.56876 5.27191L8.44439 5.89589L8.13802 6.90334L9.04963 6.35298L10.0805 6.92901L9.53679 5.90439L10.368 5.27191L9.51672 5.27092L9.01454 4.38562L8.4678 5.27842Z" fill="#FF0000"/>
</g>
</svg>
